X: 1
T: MY LOVE IS IN AMERICA -- REEL
B: Ryan's Mammoth Collection of Fiddle Tunes
R: reel
M: C|
L: 1/8
Z: Contributed 20000424174844 by John Chambers jchambers:casc.com
K: D
 VFEFG ABcB | Adde fdcA | FEFG ABcA | GBAG FDD2 |
  FEFG ABcB | Adde fdcA | FEFG ABcA | GBAG FDD2 :|
: fdeg fdec | Gddc Addg | fdeg fdec | GBAG FDD2 |
  fdeg fdeB | Addc Addg | afge fdcA | GBAG FDD2 :|
